resources/svg/check-square.svg

<svg xmlns="http://www.w3.org/2000/svg" viewBox="0 0 256 256" fill="currentColor"><path d="M177.78662,98.4762a7.99953,7.99953,0,0,1-.26367,11.31054l-58.666,56a7.99913,7.99913,0,0,1-11.04687.00049l-29.334-28A7.99994,7.99994,0,1,1,89.523,126.213l23.81055,22.72754L166.47607,98.2135A8.00047,8.00047,0,0,1,177.78662,98.4762Zm46.21289-50.47608v160a16.01833,16.01833,0,0,1-16,16h-160a16.01833,16.01833,0,0,1-16-16v-160a16.01834,16.01834,0,0,1,16-16h160A16.01833,16.01833,0,0,1,223.99951,48.00012ZM208.01025,207.99963l-.01074-159.99951h-160v160h160Z"/></svg>

<svg xmlns="http://www.w3.org/2000/svg" viewBox="0 0 256 256" fill="currentColor"><path d="M177.8,98.5a8,8,0,0,1-.3,11.3l-58.6,56a8.1,8.1,0,0,1-5.6,2.2,7.9,7.9,0,0,1-5.5-2.2l-29.3-28a8,8,0,1,1,11-11.6l23.8,22.7,53.2-50.7A8,8,0,0,1,177.8,98.5ZM224,48V208a16,16,0,0,1-16,16H48a16,16,0,0,1-16-16V48A16,16,0,0,1,48,32H208A16,16,0,0,1,224,48ZM208,208V48H48V208Z"/></svg>
